X:1
T: Lundin Links
C:
R:Strathspey
Q: 128
K:F
M:4/4
L:1/16
|:Ac3 c3f d3c A3F|DF3 C3F D3F C3B|Ac3 c3f d3c A3F|DG3 G3F G6 B2|
Ac3 c3f d3c A3F|DF3 C3F D3F C3B|Ac3 c3f d3c A3F|DG3 G3F G6 B2|
Ac3 cf3 a3g f3d|c3A f3e d2c2 B2A2|dg3 g3a b3a g3f|((3d2e2f2) ((3c2B2A2) G6 c2|
Ac3 cf3 a3g f3d|c3A f3e d2c2 B2A2|dg3 g3a b3a g3f|((3d2e2f2) ((3e2f2g2) f4-f4:|

